X:255
T:Kim's Lament Polka
M:2/4
L:1/8
Q:
C:Paul Rito
S:By Paul Rito, Transcribed/Arranged by Doug Mast
R:Polka
K:G
G/A/|:"G"BA GF|"C"G2 "D"AG/A/|BA GF|"Em"E2 "D"DG/A/|
|"G"BA GF|"C"G2 "D"AG/A/|"G"BA "D"GF|1"G" G3 G/A/:|2"G"G3 B/c/|
|"G"dd ef|g2  zg/a/|"G"ba "D"gf| "G"g2 zg/e/|
|"G"dd ed|"Em"B2 z G/A/|"C"BA "D"GF|1"G" G3 B/c/:|2 "G"G3 ||
